X: 17
T: Frost Is All Over, The
Z: Robert Engelman
S: https://thesession.org/tunes/448#setting46584
R: jig
M: 6/8
L: 1/8
K: Dmaj
A|:d2f edB|AFD E2 D|F2A AFA|B2e edB|
dAf edB|AFD E2 D|FAA AFA|1 Bdc d2A:|2 Bdc d2e||
|:fdf agf|gfg bag|f2 a aef|gfg efg|
[1 fdf agf|g2g bag|fgf ede|fdc d2e:|
[2 fga efg|fdB AFA|Bcd efg|faf gfe||

